icons/sort-desc-24.svg

<svg xmlns="http://www.w3.org/2000/svg" width="24" height="24" viewBox="0 0 24 24"><path d="M18.5 16.44V6.75a.75.75 0 00-1.5 0v9.69l-2.22-2.22a.75.75 0 10-1.06 1.06l3.5 3.5a.75.75 0 001.06 0l3.5-3.5a.75.75 0 10-1.06-1.06l-2.22 2.22zM2 7.25a.75.75 0 01.75-.75h9.5a.75.75 0 010 1.5h-9.5A.75.75 0 012 7.25zm0 5a.75.75 0 01.75-.75h5.5a.75.75 0 010 1.5h-5.5a.75.75 0 01-.75-.75zm0 5a.75.75 0 01.75-.75h3.5a.75.75 0 010 1.5h-3.5a.75.75 0 01-.75-.75z"/></svg>

<svg xmlns="http://www.w3.org/2000/svg" width="24" height="24" viewBox="0 0 24 24">
  <defs/>
  <path d="M18.5,16.44 L18.5,6.75 A0.75 0.75 0 0 0 17,6.75 L17,16.44 L14.78,14.22 A0.75 0.75 0 1 0 13.72,15.28 L17.22,18.78 A0.75 0.75 0 0 0 18.28,18.78 L21.78,15.28 A0.75 0.75 0 1 0 20.72,14.22 L18.5,16.44 Z M2,7.25 A0.75 0.75 0 0 1 2.75,6.5 L12.25,6.5 A0.75 0.75 0 0 1 12.25,8 L2.75,8 A0.75 0.75 0 0 1 2,7.25 Z M2,12.25 A0.75 0.75 0 0 1 2.75,11.5 L8.25,11.5 A0.75 0.75 0 0 1 8.25,13 L2.75,13 A0.75 0.75 0 0 1 2,12.25 Z M2,17.25 A0.75 0.75 0 0 1 2.75,16.5 L6.25,16.5 A0.75 0.75 0 0 1 6.25,18 L2.75,18 A0.75 0.75 0 0 1 2,17.25 Z"/>
</svg>
